Simply white circles/scalable/actions/view-paged.svg

<svg xmlns="http://www.w3.org/2000/svg" width="24" height="24">
  <path fill="#e6e6e6" d="M3.56639984.49999971s-1.5332031-.00013007-1.5332031 1.5332031v15.3339849c0 1.533333 1.5332031 1.533203 1.5332031 1.533203h12.2675778s1.53320401.00013 1.53320401-1.533203V2.03320282c0-1.53333317-1.533204-1.5332031-1.533204-1.5332031H3.56639985zm.7675782 1.5332031h10.7324216s.767578.0009115.767578.7675781v13.7988278s-.000911.767579-.767578.767579H4.33397805s-.7675782-.000912-.7675782-.767579V2.80078092c0-.7666666.7675782-.7675781.7675782-.7675781zm14.56640661 3.0664063v1.5332031h.765625s.767578.0009115.767578.7675781v13.7988284s-.000912.767578-.767578.767578H8.93358745s-.7675782-.000912-.7675782-.767578v-.765625h-1.5332031v1.533203c0 1.533333 1.5332031 1.533203 1.5332031 1.533203h12.2675784s1.533203.00013 1.533203-1.533203V6.63281222c0-1.5333332-1.533203-1.5332031-1.533203-1.5332031h-1.533203z" color="#bebebe" overflow="visible" style="marker:none"/>
</svg>

<?xml version="1.0" encoding="UTF-8" standalone="no"?>
<svg
   xmlns:dc="http://purl.org/dc/elements/1.1/"
   xmlns:cc="http://creativecommons.org/ns#"
   xmlns:rdf="http://www.w3.org/1999/02/22-rdf-syntax-ns#"
   xmlns:svg="http://www.w3.org/2000/svg"
   xmlns="http://www.w3.org/2000/svg"
   xmlns:sodipodi="http://sodipodi.sourceforge.net/DTD/sodipodi-0.dtd"
   xmlns:inkscape="http://www.inkscape.org/namespaces/inkscape"
   viewBox="0 0 24 24"
   version="1.1"
   id="svg4"
   sodipodi:docname="view-paged.svg"
   inkscape:version="0.92.3 (2405546, 2018-03-11)"
   width="24"
   height="24"
   style="fill:#000000">
  <metadata
     id="metadata10">
    <rdf:RDF>
      <cc:Work
         rdf:about="">
        <dc:format>image/svg+xml</dc:format>
        <dc:type
           rdf:resource="http://purl.org/dc/dcmitype/StillImage" />
        <dc:title></dc:title>
      </cc:Work>
    </rdf:RDF>
  </metadata>
  <defs
     id="defs8" />
  <sodipodi:namedview
     pagecolor="#ffffff"
     bordercolor="#666666"
     borderopacity="1"
     objecttolerance="10"
     gridtolerance="10"
     guidetolerance="10"
     inkscape:pageopacity="0"
     inkscape:pageshadow="2"
     inkscape:window-width="1366"
     inkscape:window-height="719"
     id="namedview6"
     showgrid="false"
     inkscape:zoom="15.909903"
     inkscape:cx="3.4888889"
     inkscape:cy="11.822222"
     inkscape:window-x="0"
     inkscape:window-y="25"
     inkscape:window-maximized="1"
     inkscape:current-layer="g4"
     showguides="true"
     inkscape:guide-bbox="true" />
  <g
     style="color:#bebebe;fill:#333333"
     transform="matrix(1.5333332,0,0,1.5333332,-1430.1,-88.433332)"
     id="g4">
    <path
       style="overflow:visible;fill:#e6e6e6;stroke-width:1.53333318;marker:none"
       d="M 3.5664062 0.5 C 3.5664062 0.5 2.0332031 0.49986993 2.0332031 2.0332031 L 2.0332031 17.367188 C 2.0332031 18.900521 3.5664062 18.900391 3.5664062 18.900391 L 15.833984 18.900391 C 15.833984 18.900391 17.367188 18.900521 17.367188 17.367188 L 17.367188 2.0332031 C 17.367188 0.49986993 15.833984 0.5 15.833984 0.5 L 3.5664062 0.5 z M 4.3339844 2.0332031 L 15.066406 2.0332031 C 15.066406 2.0332031 15.833984 2.0341146 15.833984 2.8007812 L 15.833984 16.599609 C 15.833984 16.599609 15.833073 17.367188 15.066406 17.367188 L 4.3339844 17.367188 C 4.3339844 17.367188 3.5664062 17.366276 3.5664062 16.599609 L 3.5664062 2.8007812 C 3.5664062 2.0341146 4.3339844 2.0332031 4.3339844 2.0332031 z M 18.900391 5.0996094 L 18.900391 6.6328125 L 19.666016 6.6328125 C 19.666016 6.6328125 20.433594 6.633724 20.433594 7.4003906 L 20.433594 21.199219 C 20.433594 21.199219 20.432682 21.966797 19.666016 21.966797 L 8.9335938 21.966797 C 8.9335938 21.966797 8.1660156 21.965885 8.1660156 21.199219 L 8.1660156 20.433594 L 6.6328125 20.433594 L 6.6328125 21.966797 C 6.6328125 23.50013 8.1660156 23.5 8.1660156 23.5 L 20.433594 23.5 C 20.433594 23.5 21.966797 23.50013 21.966797 21.966797 L 21.966797 6.6328125 C 21.966797 5.0994793 20.433594 5.0996094 20.433594 5.0996094 L 18.900391 5.0996094 z "
       transform="matrix(0.65217397,0,0,0.65217397,932.67399,57.673917)"
       id="path6" />
  </g>
</svg>
